public/icons/github-icon.svg

<svg width="32" height="33" viewBox="0 0 32 33" fill="white" xmlns="http://www.w3.org/2000/svg">
<path d="M20.8247 29.8656C19.6041 30.3592 18.2866 30.5667 16.9734 30.4721C15.6634 30.5804 14.3465 30.3724 13.1336 29.8656C12.9663 29.7305 12.8318 29.5592 12.74 29.3648C12.6483 29.1703 12.6016 28.9576 12.6036 28.7426C12.6036 28.3217 12.5883 27.2158 12.5806 25.7445C7.67511 26.8102 6.64006 23.3798 6.64006 23.3798C6.3157 22.3139 5.62081 21.3991 4.68091 20.8008C3.08145 19.7064 4.80145 19.7294 4.80145 19.7294C5.3604 19.8067 5.89432 20.0106 6.36249 20.3256C6.83066 20.6405 7.22072 21.0583 7.50292 21.5469C7.74185 21.9818 8.06464 22.365 8.45261 22.6744C8.84059 22.9837 9.28604 23.2131 9.76322 23.3492C10.2404 23.4853 10.7398 23.5255 11.2326 23.4673C11.7254 23.4092 12.2018 23.2539 12.6342 23.0105C12.715 22.1158 13.1126 21.2792 13.7554 20.6515C9.84089 20.2077 5.72362 18.6943 5.72362 11.9387C5.6979 10.1865 6.34735 8.49167 7.53736 7.20537C6.99996 5.68501 7.06222 4.01698 7.71146 2.54092C7.71146 2.54092 9.19039 2.06644 12.5596 4.34892C15.4494 3.55662 18.4993 3.55662 21.3891 4.34892C24.7564 2.06644 26.2334 2.54092 26.2334 2.54092C26.8839 4.01661 26.9468 5.68486 26.4094 7.20537C27.5994 8.49154 28.2483 10.1867 28.2213 11.9387C28.2213 18.7115 24.0983 20.2038 20.1704 20.6401C20.5912 21.0672 20.9156 21.5795 21.1218 22.1425C21.3281 22.7055 21.4114 23.3061 21.3662 23.904C21.3662 26.2611 21.3451 28.1648 21.3451 28.7426C21.3561 28.958 21.3145 29.1728 21.2238 29.3685C21.1331 29.5641 20.9962 29.7348 20.8247 29.8656Z" />
</svg>

<svg width="32" height="33" viewBox="0 0 32 33" fill="#fff" xmlns="http://www.w3.org/2000/svg">
    <path
        d="M20.825 29.866a8.62 8.62 0 01-3.852.606 8.206 8.206 0 01-3.84-.606 1.427 1.427 0 01-.53-1.123c0-.421-.015-1.527-.022-2.998-4.906 1.065-5.94-2.365-5.94-2.365a4.668 4.668 0 00-1.96-2.58c-1.6-1.094.12-1.07.12-1.07a3.706 3.706 0 012.702 1.817 3.754 3.754 0 005.131 1.463 3.771 3.771 0 011.121-2.359c-3.914-.443-8.031-1.957-8.031-8.712a6.822 6.822 0 011.813-4.734 6.339 6.339 0 01.174-4.664s1.48-.475 4.849 1.808c2.89-.792 5.94-.792 8.83 0 3.366-2.283 4.843-1.808 4.843-1.808a6.332 6.332 0 01.176 4.664 6.815 6.815 0 011.812 4.734c0 6.773-4.123 8.265-8.05 8.701a4.198 4.198 0 011.195 3.264c0 2.357-.02 4.26-.02 4.839a1.327 1.327 0 01-.521 1.123z" />
</svg>
